dist/svg/u1F9C3.svg

<?xml version="1.0" encoding="UTF-8"?><svg id="Layer_1" xmlns="http://www.w3.org/2000/svg" viewBox="0 0 40 40"><g><path d="M25.22985,36.26668H5.88947c-.87207,0-1.57902-.70695-1.57902-1.57902V15.04229H25.22985v21.22439Z" style="fill:#ffd06c;"/><polygon points="25.22985 15.04229 4.31045 15.04229 9.85911 7.53255 30.77851 7.53255 25.22985 15.04229" style="fill:#ffe3a0;"/><path d="M25.22985,15.04229h10.4597v19.64537c0,.87149-.70754,1.57902-1.57902,1.57902h-8.88068V15.04229h0Z" style="fill:#ff9000;"/><polygon points="30.77851 7.53255 35.68955 15.04229 25.22985 15.04229 30.77851 7.53255" style="fill:#ec6700;"/><path d="M10.82235,3.73332H29.81528c.53162,0,.96324,.43161,.96324,.96324v2.836H9.85911v-2.836c0-.53162,.43161-.96324,.96324-.96324Z" style="fill:#ffd06c;"/><ellipse cx="14.28324" cy="26.77642" rx="4.07069" ry="3.83318" style="fill:#fc4500;"/><path d="M18.22321,20.23589c.15146,.04645,.23899,.2048,.18973,.35537-.15827,.48372-.58093,1.50895-1.42987,1.97122-.83692,.45573-1.8538,.23674-2.32699,.09164-.1553-.04762-.23785-.20984-.18703-.36412,.16047-.48721,.58313-1.503,1.42701-1.96252,.83702-.45578,1.85404-.23669,2.32716-.09159Z" style="fill:#076565;"/><polygon points="25.22985 15.04229 28.00418 11.28742 35.68955 15.04229 25.22985 15.04229" style="fill:#f77f00;"/></g><rect y="0" width="40" height="40" style="fill:none;"/></svg>

<svg id="Layer_1" data-name="Layer 1" xmlns="http://www.w3.org/2000/svg" viewBox="0 0 40 40"><defs><style>.cls-1{fill:#ffd06c;}.cls-2{fill:#ffe3a0;}.cls-3{fill:#ff9000;}.cls-4{fill:#ec6700;}.cls-5{fill:#fc4500;}.cls-6{fill:#076565;}.cls-7{fill:#f77f00;}.cls-8{fill:none;}</style></defs><path class="cls-1" d="M25.23,36.267H5.889A1.579,1.579,0,0,1,4.31,34.688V15.042H25.23Z"/><polygon class="cls-2" points="25.23 15.042 4.31 15.042 9.859 7.533 30.779 7.533 25.23 15.042"/><path class="cls-3" d="M25.23,15.042H35.69a0,0,0,0,1,0,0V34.688a1.579,1.579,0,0,1-1.579,1.579H25.23a0,0,0,0,1,0,0V15.042A0,0,0,0,1,25.23,15.042Z"/><polygon class="cls-4" points="30.779 7.533 35.69 15.042 25.23 15.042 30.779 7.533"/><path class="cls-1" d="M10.822,3.733H29.815a.963.963,0,0,1,.963.963V7.533a0,0,0,0,1,0,0H9.859a0,0,0,0,1,0,0V4.7A.963.963,0,0,1,10.822,3.733Z"/><ellipse class="cls-5" cx="14.283" cy="26.776" rx="4.071" ry="3.833"/><path class="cls-6" d="M18.223,20.236a.281.281,0,0,1,.19.355,3.515,3.515,0,0,1-1.43,1.971,3.149,3.149,0,0,1-2.327.092.284.284,0,0,1-.187-.364A3.516,3.516,0,0,1,15.9,20.327,3.154,3.154,0,0,1,18.223,20.236Z"/><polygon class="cls-7" points="25.23 15.042 28.004 11.287 35.69 15.042 25.23 15.042"/><rect class="cls-8" width="40" height="40"/></svg>
